app/assets/img/work/ttl-ieerabi-sp.svg

<svg fill="none" height="21" viewBox="0 0 140 21" width="140" xmlns="http://www.w3.org/2000/svg"><path d="m4.72 6.519v13.481h-4.03v-13.481zm.468-3.692c0 .32067-.065.624-.195.91-.13.27733-.30767.52433-.533.741-.22533.208-.48967.377-.793.507-.29467.12133-.611.182-.949.182-.32933 0-.637-.06067-.923-.182-.286-.13-.54167-.299-.767-.507-.216667-.21667-.39-.46367-.52-.741-.121333-.286-.182-.58933-.182-.91 0-.32933.060667-.637.182-.923.13-.286.303333-.53733.52-.754.22533-.216667.481-.385667.767-.507001.286-.121333.59367-.181999.923-.181999.338 0 .65433.060666.949.181999.30333.121334.56767.290334.793.507001.22533.21667.403.468.533.754s.195.59367.195.923zm8.8181 3.484c.8926 0 1.7073.13867 2.444.416.7453.27733 1.3823.68033 1.911 1.209.5373.52867.9533 1.17867 1.248 1.95.3033.7627.455 1.6293.455 2.6 0 .3033-.013.5503-.039.741s-.0737.3423-.143.455c-.0694.1127-.1647.1907-.286.234-.1127.0433-.26.065-.442.065h-7.774c.13 1.1267.4723 1.9457 1.027 2.457.5546.5027 1.2696.754 2.145.754.468 0 .871-.0563 1.209-.169s.637-.2383.897-.377c.2686-.1387.5113-.2643.728-.377.2253-.1127.4593-.169.702-.169.3206 0 .5633.117.728.351l1.17 1.443c-.416.4767-.8667.8667-1.352 1.17-.4767.2947-.9707.5287-1.482.702-.5027.1647-1.0097.2773-1.521.338-.5027.0693-.9837.104-1.443.104-.9447 0-1.833-.1517-2.665-.455-.8234-.312-1.54704-.7713-2.17104-1.378-.61533-.6067-1.105-1.3607-1.469-2.262-.35533-.9013-.533-1.95-.533-3.146 0-.9013.15167-1.755.455-2.561.312-.806.754-1.51233 1.326-2.119.58067-.60667 1.27834-1.08767 2.09304-1.443.8233-.35533 1.7506-.533 2.782-.533zm.078 2.782c-.7714 0-1.3737.221-1.807.663-.4334.4333-.7194 1.0617-.858 1.885h5.031c0-.3207-.0434-.6327-.13-.936-.078-.3033-.2124-.572-.403-.806-.182-.24267-.4247-.43767-.728-.585-.3034-.14733-.6717-.221-1.105-.221zm8.2925 1.378h7.02v3.25h-7.02zm15.9151-4.16c.8927 0 1.7073.13867 2.444.416.7453.27733 1.3823.68033 1.911 1.209.5373.52867.9533 1.17867 1.248 1.95.3033.7627.455 1.6293.455 2.6 0 .3033-.013.5503-.039.741s-.0737.3423-.143.455-.1647.1907-.286.234c-.1127.0433-.26.065-.442.065h-7.774c.13 1.1267.4723 1.9457 1.027 2.457.5547.5027 1.2697.754 2.145.754.468 0 .871-.0563 1.209-.169s.637-.2383.897-.377c.2687-.1387.5113-.2643.728-.377.2253-.1127.4593-.169.702-.169.3207 0 .5633.117.728.351l1.17 1.443c-.416.4767-.8667.8667-1.352 1.17-.4767.2947-.9707.5287-1.482.702-.5027.1647-1.0097.2773-1.521.338-.5027.0693-.9837.104-1.443.104-.9447 0-1.833-.1517-2.665-.455-.8233-.312-1.547-.7713-2.171-1.378-.6153-.6067-1.105-1.3607-1.469-2.262-.3553-.9013-.533-1.95-.533-3.146 0-.9013.1517-1.755.455-2.561.312-.806.754-1.51233 1.326-2.119.5807-.60667 1.2783-1.08767 2.093-1.443.8233-.35533 1.7507-.533 2.782-.533zm.078 2.782c-.7713 0-1.3737.221-1.807.663-.4333.4333-.7193 1.0617-.858 1.885h5.031c0-.3207-.0433-.6327-.13-.936-.078-.3033-.2123-.572-.403-.806-.182-.24267-.4247-.43767-.728-.585s-.6717-.221-1.105-.221zm8.5526 10.907v-13.481h2.392c.1993 0 .364.01733.494.052.1386.03467.2513.091.338.169.0953.06933.1646.16467.208.286.052.12133.0953.26867.13.442l.221 1.261c.494-.76267 1.0486-1.365 1.664-1.807.6153-.442 1.287-.663 2.015-.663.6153 0 1.1093.14733 1.482.442l-.52 2.964c-.0347.182-.104.312-.208.39-.104.0693-.2427.104-.416.104-.1474 0-.3207-.0173-.52-.052-.1994-.0433-.4507-.065-.754-.065-1.0574 0-1.8894.5633-2.496 1.69v8.268zm20.0543 0c-.3813 0-.6717-.052-.871-.156-.1907-.104-.351-.3207-.481-.65l-.286-.741c-.338.286-.663.5373-.975.754s-.637.403-.975.559c-.3293.1473-.6847.2557-1.066.325-.3727.078-.7887.117-1.248.117-.6153 0-1.1743-.078-1.677-.234-.5027-.1647-.9317-.403-1.287-.715-.3467-.312-.6153-.6977-.806-1.157-.1907-.468-.286-1.0053-.286-1.612 0-.4767.1213-.9663.364-1.469s.663-.9577 1.261-1.365c.598-.416 1.404-.7627 2.418-1.04s2.2923-.4333 3.835-.468v-.572c0-.7887-.1647-1.3563-.494-1.703-.3207-.35533-.78-.533-1.378-.533-.4767 0-.8667.052-1.17.156s-.5763.221-.819.351c-.234.13-.4637.247-.689.351s-.494.156-.806.156c-.2773 0-.5157-.065-.715-.195-.1907-.1387-.3423-.30767-.455-.507l-.728-1.261c.8147-.71933 1.716-1.25233 2.704-1.599.9967-.35533 2.0627-.533 3.198-.533.8147 0 1.547.13433 2.197.403.6587.26 1.2133.62833 1.664 1.105.4593.468.8103 1.027 1.053 1.677s.364 1.3607.364 2.132v8.424zm-4.628-2.457c.52 0 .975-.091 1.365-.273s.7843-.4767 1.183-.884v-1.872c-.806.0347-1.469.104-1.989.208s-.9317.234-1.235.39-.5157.3337-.637.533c-.1127.1993-.169.416-.169.65 0 .4593.1257.7843.377.975.2513.182.6197.273 1.105.273zm9.5956 2.457v-19.461001h4.03v7.410001c.5027-.494 1.0704-.88833 1.703-1.183.6414-.30333 1.391-.455 2.249-.455.702 0 1.352.15167 1.95.455s1.1137.74967 1.547 1.339c.4334.58067.7714 1.29567 1.014 2.145.2514.8493.377 1.8157.377 2.899 0 1.014-.143 1.95-.429 2.808-.2773.858-.6716 1.6033-1.183 2.236-.5026.6327-1.1093 1.1267-1.82 1.482-.702.3553-1.482.533-2.34.533-.3987 0-.7583-.039-1.079-.117-.312-.078-.6023-.1863-.871-.325-.26-.1473-.5027-.3207-.728-.52-.2167-.1993-.429-.416-.637-.65l-.143.676c-.0607.2773-.1733.468-.338.572-.156.104-.364.156-.624.156zm6.578-10.66c-.2947 0-.5633.03033-.806.091-.234.052-.455.13-.663.234-.1993.104-.3857.23833-.559.403-.1733.156-.3467.338-.52.546v5.72c.3033.338.6327.5763.988.715.3554.13.728.195 1.118.195.3727 0 .715-.0737 1.027-.221s.5807-.3813.806-.702c.234-.3293.416-.754.546-1.274s.195-1.1527.195-1.898c0-.7107-.052-1.3087-.156-1.794s-.2513-.8753-.442-1.17c-.182-.30333-.403-.52-.663-.65s-.5503-.195-.871-.195zm12.9241-2.821v13.481h-4.0301v-13.481zm.4679-3.692c0 .32067-.065.624-.1949.91-.1301.27733-.3077.52433-.5331.741-.2253.208-.4896.377-.7929.507-.2947.12133-.6111.182-.9491.182-.3293 0-.637-.06067-.923-.182-.286-.13-.5416-.299-.767-.507-.2166-.21667-.39-.46367-.52-.741-.1213-.286-.182-.58933-.182-.91 0-.32933.0607-.637.182-.923.13-.286.3034-.53733.52-.754.2254-.216667.481-.385667.767-.507001.286-.121333.5937-.181999.923-.181999.338 0 .6544.060666.9491.181999.3033.121334.5676.290334.7929.507001.2254.21667.403.468.5331.754.1299.286.1949.59367.1949.923zm2.2661 15.132c0-.312.0563-.6023.169-.871.1213-.2687.2817-.5027.481-.702.208-.1993.4507-.3553.728-.468.2773-.1213.5807-.182.91-.182.3207 0 .6197.0607.897.182.2773.1127.52.2687.728.468s.3683.4333.481.702c.1213.2687.182.559.182.871s-.0607.6067-.182.884c-.1127.2687-.273.5027-.481.702s-.4507.3553-.728.468-.5763.169-.897.169c-.3293 0-.6327-.0563-.91-.169s-.52-.2687-.728-.468c-.1993-.1993-.3597-.4333-.481-.702-.1127-.2773-.169-.572-.169-.884zm7.1847 2.041v-13.481h2.496c.251 0 .459.05633.624.169.173.11267.295.28167.364.507l.234.78c.26-.24267.529-.468.806-.676s.572-.38133.884-.52c.321-.14733.663-.26 1.027-.338.373-.08667.776-.13 1.209-.13.737 0 1.387.13 1.95.39.572.25133 1.053.60667 1.443 1.066.39.45067.685.99233.884 1.625.199.624.299 1.3043.299 2.041v8.567h-4.03v-8.567c0-.6587-.152-1.17-.455-1.534-.303-.37267-.75-.559-1.339-.559-.442 0-.858.09533-1.248.286s-.763.4463-1.118.767v9.607zm21.114-13.689c.893 0 1.707.13867 2.444.416.745.27733 1.382.68033 1.911 1.209.537.52867.953 1.17867 1.248 1.95.303.7627.455 1.6293.455 2.6 0 .3033-.013.5503-.039.741s-.074.3423-.143.455-.165.1907-.286.234c-.113.0433-.26.065-.442.065h-7.774c.13 1.1267.472 1.9457 1.027 2.457.555.5027 1.27.754 2.145.754.468 0 .871-.0563 1.209-.169s.637-.2383.897-.377c.269-.1387.511-.2643.728-.377.225-.1127.459-.169.702-.169.321 0 .563.117.728.351l1.17 1.443c-.416.4767-.867.8667-1.352 1.17-.477.2947-.971.5287-1.482.702-.503.1647-1.01.2773-1.521.338-.503.0693-.984.104-1.443.104-.945 0-1.833-.1517-2.665-.455-.823-.312-1.547-.7713-2.171-1.378-.615-.6067-1.105-1.3607-1.469-2.262-.355-.9013-.533-1.95-.533-3.146 0-.9013.152-1.755.455-2.561.312-.806.754-1.51233 1.326-2.119.581-.60667 1.278-1.08767 2.093-1.443.823-.35533 1.751-.533 2.782-.533zm.078 2.782c-.771 0-1.374.221-1.807.663-.433.4333-.719 1.0617-.858 1.885h5.031c0-.3207-.043-.6327-.13-.936-.078-.3033-.212-.572-.403-.806-.182-.24267-.425-.43767-.728-.585s-.672-.221-1.105-.221zm13.284 11.115c-.641 0-1.209-.091-1.703-.273-.485-.1907-.897-.455-1.235-.793-.329-.3467-.58-.7627-.754-1.248-.173-.4853-.26-1.027-.26-1.625v-6.968h-1.144c-.208 0-.385-.065-.533-.195-.147-.13867-.221-.338-.221-.598v-1.573l2.145-.416.793-3.289c.104-.416.399-.624.884-.624h2.106v3.939h3.276v2.756h-3.276v6.695c0 .312.074.572.221.78.156.1993.377.299.663.299.148 0 .269-.013.364-.039.104-.0347.191-.0693.26-.104.078-.0433.148-.078.208-.104.07-.0347.148-.052.234-.052.122 0 .217.0303.286.091.078.052.156.1387.234.26l1.222 1.911c-.52.39-1.105.6847-1.755.884-.65.1907-1.321.286-2.015.286z" fill="#121111"/></svg>

<svg width="140" height="21" viewBox="0 0 140 21" fill="none" xmlns="http://www.w3.org/2000/svg">
<path d="M4.72 6.519V20H0.69V6.519H4.72ZM5.188 2.827C5.188 3.14767 5.123 3.451 4.993 3.737C4.863 4.01433 4.68533 4.26133 4.46 4.478C4.23467 4.686 3.97033 4.855 3.667 4.985C3.37233 5.10633 3.056 5.167 2.718 5.167C2.38867 5.167 2.081 5.10633 1.795 4.985C1.509 4.855 1.25333 4.686 1.028 4.478C0.811333 4.26133 0.638 4.01433 0.508 3.737C0.386667 3.451 0.326 3.14767 0.326 2.827C0.326 2.49767 0.386667 2.19 0.508 1.904C0.638 1.618 0.811333 1.36667 1.028 1.15C1.25333 0.933333 1.509 0.764333 1.795 0.642999C2.081 0.521666 2.38867 0.461 2.718 0.461C3.056 0.461 3.37233 0.521666 3.667 0.642999C3.97033 0.764333 4.23467 0.933333 4.46 1.15C4.68533 1.36667 4.863 1.618 4.993 1.904C5.123 2.19 5.188 2.49767 5.188 2.827ZM14.0061 6.311C14.8987 6.311 15.7134 6.44967 16.4501 6.727C17.1954 7.00433 17.8324 7.40733 18.3611 7.936C18.8984 8.46467 19.3144 9.11467 19.6091 9.886C19.9124 10.6487 20.0641 11.5153 20.0641 12.486C20.0641 12.7893 20.0511 13.0363 20.0251 13.227C19.9991 13.4177 19.9514 13.5693 19.8821 13.682C19.8127 13.7947 19.7174 13.8727 19.5961 13.916C19.4834 13.9593 19.3361 13.981 19.1541 13.981H11.3801C11.5101 15.1077 11.8524 15.9267 12.4071 16.438C12.9617 16.9407 13.6767 17.192 14.5521 17.192C15.0201 17.192 15.4231 17.1357 15.7611 17.023C16.0991 16.9103 16.3981 16.7847 16.6581 16.646C16.9267 16.5073 17.1694 16.3817 17.3861 16.269C17.6114 16.1563 17.8454 16.1 18.0881 16.1C18.4087 16.1 18.6514 16.217 18.8161 16.451L19.9861 17.894C19.5701 18.3707 19.1194 18.7607 18.6341 19.064C18.1574 19.3587 17.6634 19.5927 17.1521 19.766C16.6494 19.9307 16.1424 20.0433 15.6311 20.104C15.1284 20.1733 14.6474 20.208 14.1881 20.208C13.2434 20.208 12.3551 20.0563 11.5231 19.753C10.6997 19.441 9.97606 18.9817 9.35206 18.375C8.73673 17.7683 8.24706 17.0143 7.88306 16.113C7.52773 15.2117 7.35006 14.163 7.35006 12.967C7.35006 12.0657 7.50173 11.212 7.80506 10.406C8.11706 9.6 8.55906 8.89367 9.13106 8.287C9.71173 7.68033 10.4094 7.19933 11.2241 6.844C12.0474 6.48867 12.9747 6.311 14.0061 6.311ZM14.0841 9.093C13.3127 9.093 12.7104 9.314 12.2771 9.756C11.8437 10.1893 11.5577 10.8177 11.4191 11.641H16.4501C16.4501 11.3203 16.4067 11.0083 16.3201 10.705C16.2421 10.4017 16.1077 10.133 15.9171 9.899C15.7351 9.65633 15.4924 9.46133 15.1891 9.314C14.8857 9.16667 14.5174 9.093 14.0841 9.093ZM22.3766 10.471H29.3966V13.721H22.3766V10.471ZM38.2917 6.311C39.1844 6.311 39.999 6.44967 40.7357 6.727C41.481 7.00433 42.118 7.40733 42.6467 7.936C43.184 8.46467 43.6 9.11467 43.8947 9.886C44.198 10.6487 44.3497 11.5153 44.3497 12.486C44.3497 12.7893 44.3367 13.0363 44.3107 13.227C44.2847 13.4177 44.237 13.5693 44.1677 13.682C44.0984 13.7947 44.003 13.8727 43.8817 13.916C43.769 13.9593 43.6217 13.981 43.4397 13.981H35.6657C35.7957 15.1077 36.138 15.9267 36.6927 16.438C37.2474 16.9407 37.9624 17.192 38.8377 17.192C39.3057 17.192 39.7087 17.1357 40.0467 17.023C40.3847 16.9103 40.6837 16.7847 40.9437 16.646C41.2124 16.5073 41.455 16.3817 41.6717 16.269C41.897 16.1563 42.131 16.1 42.3737 16.1C42.6944 16.1 42.937 16.217 43.1017 16.451L44.2717 17.894C43.8557 18.3707 43.405 18.7607 42.9197 19.064C42.443 19.3587 41.949 19.5927 41.4377 19.766C40.935 19.9307 40.428 20.0433 39.9167 20.104C39.414 20.1733 38.933 20.208 38.4737 20.208C37.529 20.208 36.6407 20.0563 35.8087 19.753C34.9854 19.441 34.2617 18.9817 33.6377 18.375C33.0224 17.7683 32.5327 17.0143 32.1687 16.113C31.8134 15.2117 31.6357 14.163 31.6357 12.967C31.6357 12.0657 31.7874 11.212 32.0907 10.406C32.4027 9.6 32.8447 8.89367 33.4167 8.287C33.9974 7.68033 34.695 7.19933 35.5097 6.844C36.333 6.48867 37.2604 6.311 38.2917 6.311ZM38.3697 9.093C37.5984 9.093 36.996 9.314 36.5627 9.756C36.1294 10.1893 35.8434 10.8177 35.7047 11.641H40.7357C40.7357 11.3203 40.6924 11.0083 40.6057 10.705C40.5277 10.4017 40.3934 10.133 40.2027 9.899C40.0207 9.65633 39.778 9.46133 39.4747 9.314C39.1714 9.16667 38.803 9.093 38.3697 9.093ZM46.9223 20V6.519H49.3143C49.5136 6.519 49.6783 6.53633 49.8083 6.571C49.9469 6.60567 50.0596 6.662 50.1463 6.74C50.2416 6.80933 50.3109 6.90467 50.3543 7.026C50.4063 7.14733 50.4496 7.29467 50.4843 7.468L50.7053 8.729C51.1993 7.96633 51.7539 7.364 52.3693 6.922C52.9846 6.48 53.6563 6.259 54.3843 6.259C54.9996 6.259 55.4936 6.40633 55.8663 6.701L55.3463 9.665C55.3116 9.847 55.2423 9.977 55.1383 10.055C55.0343 10.1243 54.8956 10.159 54.7223 10.159C54.5749 10.159 54.4016 10.1417 54.2023 10.107C54.0029 10.0637 53.7516 10.042 53.4483 10.042C52.3909 10.042 51.5589 10.6053 50.9523 11.732V20H46.9223ZM66.9766 20C66.5953 20 66.3049 19.948 66.1056 19.844C65.9149 19.74 65.7546 19.5233 65.6246 19.194L65.3386 18.453C65.0006 18.739 64.6756 18.9903 64.3636 19.207C64.0516 19.4237 63.7266 19.61 63.3886 19.766C63.0593 19.9133 62.7039 20.0217 62.3226 20.091C61.9499 20.169 61.5339 20.208 61.0746 20.208C60.4593 20.208 59.9003 20.13 59.3976 19.974C58.8949 19.8093 58.4659 19.571 58.1106 19.259C57.7639 18.947 57.4953 18.5613 57.3046 18.102C57.1139 17.634 57.0186 17.0967 57.0186 16.49C57.0186 16.0133 57.1399 15.5237 57.3826 15.021C57.6253 14.5183 58.0456 14.0633 58.6436 13.656C59.2416 13.24 60.0476 12.8933 61.0616 12.616C62.0756 12.3387 63.3539 12.1827 64.8966 12.148V11.576C64.8966 10.7873 64.7319 10.2197 64.4026 9.873C64.0819 9.51767 63.6226 9.34 63.0246 9.34C62.5479 9.34 62.1579 9.392 61.8546 9.496C61.5513 9.6 61.2783 9.717 61.0356 9.847C60.8016 9.977 60.5719 10.094 60.3466 10.198C60.1213 10.302 59.8526 10.354 59.5406 10.354C59.2633 10.354 59.0249 10.289 58.8256 10.159C58.6349 10.0203 58.4833 9.85133 58.3706 9.652L57.6426 8.391C58.4573 7.67167 59.3586 7.13867 60.3466 6.792C61.3433 6.43667 62.4093 6.259 63.5446 6.259C64.3593 6.259 65.0916 6.39333 65.7416 6.662C66.4003 6.922 66.9549 7.29033 67.4056 7.767C67.8649 8.235 68.2159 8.794 68.4586 9.444C68.7013 10.094 68.8226 10.8047 68.8226 11.576V20H66.9766ZM62.3486 17.543C62.8686 17.543 63.3236 17.452 63.7136 17.27C64.1036 17.088 64.4979 16.7933 64.8966 16.386V14.514C64.0906 14.5487 63.4276 14.618 62.9076 14.722C62.3876 14.826 61.9759 14.956 61.6726 15.112C61.3693 15.268 61.1569 15.4457 61.0356 15.645C60.9229 15.8443 60.8666 16.061 60.8666 16.295C60.8666 16.7543 60.9923 17.0793 61.2436 17.27C61.4949 17.452 61.8633 17.543 62.3486 17.543ZM71.9442 20V0.538999H75.9742V7.949C76.4769 7.455 77.0446 7.06067 77.6772 6.766C78.3186 6.46267 79.0682 6.311 79.9262 6.311C80.6282 6.311 81.2782 6.46267 81.8762 6.766C82.4742 7.06933 82.9899 7.51567 83.4232 8.105C83.8566 8.68567 84.1946 9.40067 84.4372 10.25C84.6886 11.0993 84.8142 12.0657 84.8142 13.149C84.8142 14.163 84.6712 15.099 84.3852 15.957C84.1079 16.815 83.7136 17.5603 83.2022 18.193C82.6996 18.8257 82.0929 19.3197 81.3822 19.675C80.6802 20.0303 79.9002 20.208 79.0422 20.208C78.6435 20.208 78.2839 20.169 77.9632 20.091C77.6512 20.013 77.3609 19.9047 77.0922 19.766C76.8322 19.6187 76.5895 19.4453 76.3642 19.246C76.1475 19.0467 75.9352 18.83 75.7272 18.596L75.5842 19.272C75.5235 19.5493 75.4109 19.74 75.2462 19.844C75.0902 19.948 74.8822 20 74.6222 20H71.9442ZM78.5222 9.34C78.2275 9.34 77.9589 9.37033 77.7162 9.431C77.4822 9.483 77.2612 9.561 77.0532 9.665C76.8539 9.769 76.6675 9.90333 76.4942 10.068C76.3209 10.224 76.1475 10.406 75.9742 10.614V16.334C76.2775 16.672 76.6069 16.9103 76.9622 17.049C77.3176 17.179 77.6902 17.244 78.0802 17.244C78.4529 17.244 78.7952 17.1703 79.1072 17.023C79.4192 16.8757 79.6879 16.6417 79.9132 16.321C80.1472 15.9917 80.3292 15.567 80.4592 15.047C80.5892 14.527 80.6542 13.8943 80.6542 13.149C80.6542 12.4383 80.6022 11.8403 80.4982 11.355C80.3942 10.8697 80.2469 10.4797 80.0562 10.185C79.8742 9.88167 79.6532 9.665 79.3932 9.535C79.1332 9.405 78.8429 9.34 78.5222 9.34ZM91.4463 6.519V20H87.4162V6.519H91.4463ZM91.9142 2.827C91.9142 3.14767 91.8492 3.451 91.7193 3.737C91.5892 4.01433 91.4116 4.26133 91.1862 4.478C90.9609 4.686 90.6966 4.855 90.3933 4.985C90.0986 5.10633 89.7822 5.167 89.4442 5.167C89.1149 5.167 88.8072 5.10633 88.5212 4.985C88.2352 4.855 87.9796 4.686 87.7542 4.478C87.5376 4.26133 87.3642 4.01433 87.2342 3.737C87.1129 3.451 87.0522 3.14767 87.0522 2.827C87.0522 2.49767 87.1129 2.19 87.2342 1.904C87.3642 1.618 87.5376 1.36667 87.7542 1.15C87.9796 0.933333 88.2352 0.764333 88.5212 0.642999C88.8072 0.521666 89.1149 0.461 89.4442 0.461C89.7822 0.461 90.0986 0.521666 90.3933 0.642999C90.6966 0.764333 90.9609 0.933333 91.1862 1.15C91.4116 1.36667 91.5892 1.618 91.7193 1.904C91.8492 2.19 91.9142 2.49767 91.9142 2.827ZM94.1803 17.959C94.1803 17.647 94.2366 17.3567 94.3493 17.088C94.4706 16.8193 94.631 16.5853 94.8303 16.386C95.0383 16.1867 95.281 16.0307 95.5583 15.918C95.8356 15.7967 96.139 15.736 96.4683 15.736C96.789 15.736 97.088 15.7967 97.3653 15.918C97.6426 16.0307 97.8853 16.1867 98.0933 16.386C98.3013 16.5853 98.4616 16.8193 98.5743 17.088C98.6956 17.3567 98.7563 17.647 98.7563 17.959C98.7563 18.271 98.6956 18.5657 98.5743 18.843C98.4616 19.1117 98.3013 19.3457 98.0933 19.545C97.8853 19.7443 97.6426 19.9003 97.3653 20.013C97.088 20.1257 96.789 20.182 96.4683 20.182C96.139 20.182 95.8356 20.1257 95.5583 20.013C95.281 19.9003 95.0383 19.7443 94.8303 19.545C94.631 19.3457 94.4706 19.1117 94.3493 18.843C94.2366 18.5657 94.1803 18.271 94.1803 17.959ZM101.365 20V6.519H103.861C104.112 6.519 104.32 6.57533 104.485 6.688C104.658 6.80067 104.78 6.96967 104.849 7.195L105.083 7.975C105.343 7.73233 105.612 7.507 105.889 7.299C106.166 7.091 106.461 6.91767 106.773 6.779C107.094 6.63167 107.436 6.519 107.8 6.441C108.173 6.35433 108.576 6.311 109.009 6.311C109.746 6.311 110.396 6.441 110.959 6.701C111.531 6.95233 112.012 7.30767 112.402 7.767C112.792 8.21767 113.087 8.75933 113.286 9.392C113.485 10.016 113.585 10.6963 113.585 11.433V20H109.555V11.433C109.555 10.7743 109.403 10.263 109.1 9.899C108.797 9.52633 108.35 9.34 107.761 9.34C107.319 9.34 106.903 9.43533 106.513 9.626C106.123 9.81667 105.75 10.0723 105.395 10.393V20H101.365ZM122.479 6.311C123.372 6.311 124.186 6.44967 124.923 6.727C125.668 7.00433 126.305 7.40733 126.834 7.936C127.371 8.46467 127.787 9.11467 128.082 9.886C128.385 10.6487 128.537 11.5153 128.537 12.486C128.537 12.7893 128.524 13.0363 128.498 13.227C128.472 13.4177 128.424 13.5693 128.355 13.682C128.286 13.7947 128.19 13.8727 128.069 13.916C127.956 13.9593 127.809 13.981 127.627 13.981H119.853C119.983 15.1077 120.325 15.9267 120.88 16.438C121.435 16.9407 122.15 17.192 123.025 17.192C123.493 17.192 123.896 17.1357 124.234 17.023C124.572 16.9103 124.871 16.7847 125.131 16.646C125.4 16.5073 125.642 16.3817 125.859 16.269C126.084 16.1563 126.318 16.1 126.561 16.1C126.882 16.1 127.124 16.217 127.289 16.451L128.459 17.894C128.043 18.3707 127.592 18.7607 127.107 19.064C126.63 19.3587 126.136 19.5927 125.625 19.766C125.122 19.9307 124.615 20.0433 124.104 20.104C123.601 20.1733 123.12 20.208 122.661 20.208C121.716 20.208 120.828 20.0563 119.996 19.753C119.173 19.441 118.449 18.9817 117.825 18.375C117.21 17.7683 116.72 17.0143 116.356 16.113C116.001 15.2117 115.823 14.163 115.823 12.967C115.823 12.0657 115.975 11.212 116.278 10.406C116.59 9.6 117.032 8.89367 117.604 8.287C118.185 7.68033 118.882 7.19933 119.697 6.844C120.52 6.48867 121.448 6.311 122.479 6.311ZM122.557 9.093C121.786 9.093 121.183 9.314 120.75 9.756C120.317 10.1893 120.031 10.8177 119.892 11.641H124.923C124.923 11.3203 124.88 11.0083 124.793 10.705C124.715 10.4017 124.581 10.133 124.39 9.899C124.208 9.65633 123.965 9.46133 123.662 9.314C123.359 9.16667 122.99 9.093 122.557 9.093ZM135.841 20.208C135.2 20.208 134.632 20.117 134.138 19.935C133.653 19.7443 133.241 19.48 132.903 19.142C132.574 18.7953 132.323 18.3793 132.149 17.894C131.976 17.4087 131.889 16.867 131.889 16.269V9.301H130.745C130.537 9.301 130.36 9.236 130.212 9.106C130.065 8.96733 129.991 8.768 129.991 8.508V6.935L132.136 6.519L132.929 3.23C133.033 2.814 133.328 2.606 133.813 2.606H135.919V6.545H139.195V9.301H135.919V15.996C135.919 16.308 135.993 16.568 136.14 16.776C136.296 16.9753 136.517 17.075 136.803 17.075C136.951 17.075 137.072 17.062 137.167 17.036C137.271 17.0013 137.358 16.9667 137.427 16.932C137.505 16.8887 137.575 16.854 137.635 16.828C137.705 16.7933 137.783 16.776 137.869 16.776C137.991 16.776 138.086 16.8063 138.155 16.867C138.233 16.919 138.311 17.0057 138.389 17.127L139.611 19.038C139.091 19.428 138.506 19.7227 137.856 19.922C137.206 20.1127 136.535 20.208 135.841 20.208Z" fill="#121111"/>
</svg>
